src/images/global/icons/action/eye.svg

<?xml version="1.0" encoding="UTF-8"?>
<svg width="48px" height="48px" viewBox="0 0 48 48" version="1.1" xmlns="http://www.w3.org/2000/svg" xmlns:xlink="http://www.w3.org/1999/xlink">
    <!-- Generator: Sketch 46.2 (44496) - http://www.bohemiancoding.com/sketch -->
    <title>icon/Action/eye</title>
    <desc>Created with Sketch.</desc>
    <defs>
        <path d="M25.847903,6.718 C26.050699,6.906 26.050699,7.094 25.847903,7.282 C25.6451071,7.532 25.451671,7.752 25.2655147,7.94 C25.0803984,8.127 24.6581668,8.535 23.99986,9.161 C23.3415532,9.787 22.649967,10.335 21.9240615,10.805 C21.198156,11.275 20.3630527,11.776 19.4177116,12.309 C18.4723706,12.841 17.4427911,13.256 16.3289734,13.554 C15.2151557,13.851 14.101338,14 12.9875202,14 C11.6709066,14 10.3293334,13.765 8.96176076,13.295 C7.5952281,12.825 6.45541089,12.317 5.54438911,11.769 C4.63336733,11.22 3.69634607,10.547 2.73436531,9.748 C1.77238455,8.95 1.1650367,8.417 0.911281774,8.151 C0.658566829,7.885 0.39649207,7.595 0.127137457,7.282 C-0.0423791524,7.125 -0.0423791524,6.937 0.127137457,6.718 C0.39649207,6.405 0.658566829,6.115 0.911281774,5.849 C1.1650367,5.583 1.77238455,5.05 2.73436531,4.252 C3.69634607,3.453 4.63336733,2.78 5.54438911,2.231 C6.45541089,1.683 7.5952281,1.175 8.96176076,0.705 C10.3293334,0.235 11.6709066,0 12.9875202,0 C14.3041339,0 15.6373873,0.227 16.9872803,0.681 C18.3371733,1.135 19.50195,1.66 20.4805704,2.255 C21.4602308,2.85 22.3795724,3.5 23.2406752,4.205 C24.100738,4.909 24.7257655,5.465 25.1136777,5.873 C25.50159,6.28 25.7470251,6.562 25.847903,6.718 M12.9875202,11.51 C14.3374133,11.51 15.4855503,11.072 16.4308914,10.195 C17.3751925,9.318 17.848383,8.253 17.848383,7 C17.848383,5.747 17.3751925,4.682 16.4308914,3.805 C15.4855503,2.928 14.3374133,2.49 12.9875202,2.49 C11.6376272,2.49 10.4894902,2.928 9.54414912,3.805 C8.59880802,4.682 8.12665747,5.747 8.12665747,7 C8.12665747,8.253 8.59880802,9.318 9.54414912,10.195 C10.4894902,11.072 11.6376272,11.51 12.9875202,11.51 M16.7844843,7 C16.7844843,7.971 16.4132117,8.801 15.6706666,9.49 C14.9281214,10.179 14.0337393,10.523 12.9875202,10.523 C11.9413012,10.523 11.0469191,10.179 10.3043739,9.49 C9.56182876,8.801 9.18951621,7.971 9.18951621,7 C9.18951621,6.029 9.56182876,5.199 10.3043739,4.51 C11.0469191,3.821 11.9413012,3.477 12.9875202,3.477 C14.0337393,3.477 14.9281214,3.821 15.6706666,4.51 C16.4132117,5.199 16.7844843,6.029 16.7844843,7" id="path-1"></path>
    </defs>
    <g id="Symbols" stroke="none" stroke-width="1" fill="none" fill-rule="evenodd">
        <g id="icon/Action/eye">
            <g id="Icon" transform="translate(11.000000, 17.000000)">
                <mask id="mask-2" fill="white">
                    <use xlink:href="#path-1"></use>
                </mask>
                <use id="Mask" fill="#384048" xlink:href="#path-1"></use>
                <g id="Color/Grayscale/Night-Sky" mask="url(#mask-2)" fill="#111111">
                    <g transform="translate(-11.000000, -17.000000)" id="Swatch">
                        <rect x="0" y="0" width="48" height="48"></rect>
                    </g>
                </g>
            </g>
        </g>
    </g>
</svg>

<?xml version="1.0" encoding="utf-8"?>
<!-- Generator: Adobe Illustrator 21.0.2, SVG Export Plug-In . SVG Version: 6.00 Build 0)  -->
<svg version="1.1" id="action-eye-Layer_1" xmlns="http://www.w3.org/2000/svg" xmlns:xlink="http://www.w3.org/1999/xlink" x="0px" y="0px"
	 viewBox="0 0 48 48" style="enable-background:new 0 0 48 48;" xml:space="preserve">
<title>icon/Action/eye</title>
<g transform="translate(11 17)">
	<g>
		<path id="action-eye-a_1_" style="fill:#384048;" d="M25.8,6.7c0.2,0.2,0.2,0.4,0,0.6c-0.2,0.3-0.4,0.5-0.6,0.7c-0.2,0.2-0.6,0.6-1.3,1.2
			c-0.6,0.6-1.3,1.2-2.1,1.6c-0.7,0.5-1.6,1-2.5,1.5c-0.9,0.5-2,0.9-3.1,1.2C15.2,13.8,14.1,14,13,14c-1.3,0-2.7-0.2-4-0.7
			s-2.5-1-3.4-1.5c-1-0.6-1.9-1.3-2.8-2c-1-0.8-1.6-1.3-1.8-1.6C0.6,7.9,0.4,7.6,0.1,7.3C0,7.1,0,6.9,0.1,6.7
			c0.3-0.3,0.5-0.6,0.8-0.9c0.3-0.3,0.9-0.8,1.8-1.6c0.9-0.7,1.8-1.4,2.8-2C6.5,1.7,7.6,1.2,9,0.7S11.7,0,13,0c1.3,0,2.7,0.2,4,0.7
			c1.4,0.5,2.5,1,3.5,1.6c1,0.6,1.9,1.2,2.8,1.9c0.9,0.7,1.5,1.3,1.9,1.7C25.5,6.3,25.7,6.6,25.8,6.7 M13,11.5
			c1.4,0,2.5-0.4,3.4-1.3c0.9-0.9,1.4-1.9,1.4-3.2s-0.5-2.3-1.4-3.2c-0.9-0.9-2.1-1.3-3.4-1.3c-1.4,0-2.5,0.4-3.4,1.3
			C8.6,4.7,8.1,5.7,8.1,7s0.5,2.3,1.4,3.2S11.6,11.5,13,11.5 M16.8,7c0,1-0.4,1.8-1.1,2.5c-0.7,0.7-1.6,1-2.7,1c-1,0-1.9-0.3-2.7-1
			C9.6,8.8,9.2,8,9.2,7s0.4-1.8,1.1-2.5c0.7-0.7,1.6-1,2.7-1c1,0,1.9,0.3,2.7,1C16.4,5.2,16.8,6,16.8,7"/>
	</g>
	<defs>
		<filter id="action-eye-Adobe_OpacityMaskFilter" filterUnits="userSpaceOnUse" x="-11" y="-17" width="48" height="48">
			<feColorMatrix  type="matrix" values="1 0 0 0 0  0 1 0 0 0  0 0 1 0 0  0 0 0 1 0"/>
		</filter>
	</defs>
	<mask maskUnits="userSpaceOnUse" x="-11" y="-17" width="48" height="48" id="action-eye-b">
		<g style="filter:url(#action-eye-Adobe_OpacityMaskFilter);">
			<path id="action-eye-a" style="fill:#FFFFFF;" d="M25.8,6.7c0.2,0.2,0.2,0.4,0,0.6c-0.2,0.3-0.4,0.5-0.6,0.7c-0.2,0.2-0.6,0.6-1.3,1.2
				c-0.6,0.6-1.3,1.2-2.1,1.6c-0.7,0.5-1.6,1-2.5,1.5c-0.9,0.5-2,0.9-3.1,1.2C15.2,13.8,14.1,14,13,14c-1.3,0-2.7-0.2-4-0.7
				s-2.5-1-3.4-1.5c-1-0.6-1.9-1.3-2.8-2c-1-0.8-1.6-1.3-1.8-1.6C0.6,7.9,0.4,7.6,0.1,7.3C0,7.1,0,6.9,0.1,6.7
				c0.3-0.3,0.5-0.6,0.8-0.9c0.3-0.3,0.9-0.8,1.8-1.6c0.9-0.7,1.8-1.4,2.8-2C6.5,1.7,7.6,1.2,9,0.7S11.7,0,13,0c1.3,0,2.7,0.2,4,0.7
				c1.4,0.5,2.5,1,3.5,1.6c1,0.6,1.9,1.2,2.8,1.9c0.9,0.7,1.5,1.3,1.9,1.7C25.5,6.3,25.7,6.6,25.8,6.7 M13,11.5
				c1.4,0,2.5-0.4,3.4-1.3c0.9-0.9,1.4-1.9,1.4-3.2s-0.5-2.3-1.4-3.2c-0.9-0.9-2.1-1.3-3.4-1.3c-1.4,0-2.5,0.4-3.4,1.3
				C8.6,4.7,8.1,5.7,8.1,7s0.5,2.3,1.4,3.2S11.6,11.5,13,11.5 M16.8,7c0,1-0.4,1.8-1.1,2.5c-0.7,0.7-1.6,1-2.7,1c-1,0-1.9-0.3-2.7-1
				C9.6,8.8,9.2,8,9.2,7s0.4-1.8,1.1-2.5c0.7-0.7,1.6-1,2.7-1c1,0,1.9,0.3,2.7,1C16.4,5.2,16.8,6,16.8,7"/>
		</g>
	</mask>
	<g style="mask:url(#action-eye-b);">
		<path style="fill:#111111;" d="M-11-17h48v48h-48V-17z"/>
	</g>
</g>
</svg>
